build/documents/MissingDocumentOutline.svg

<svg xmlns="http://www.w3.org/2000/svg" fill="none" viewBox="0 0 24 24" focusable="false"><path fill="none" d="M0 0H24V24H0z"/><path fill="#74767B" fill-rule="evenodd" d="M10.7 3C11.059 3 11.35 3.29101 11.35 3.65C11.35 4.00899 11.059 4.3 10.7 4.3L8.65 4.3C8.29101 4.3 8 4.00899 8 3.65C8 3.29101 8.29101 3 8.65 3L10.7 3ZM20 10.7C20 11.059 19.709 11.35 19.35 11.35C18.991 11.35 18.7 11.059 18.7 10.7L18.7 9.24264C18.7 9.1605 18.6941 9.07897 18.6824 8.99863L16.3514 8.99863C15.0535 8.99863 14.0014 7.9465 14.0014 6.64863L14.0014 4.3176C13.921 4.30594 13.8395 4.3 13.7574 4.3L13.3 4.3C12.941 4.3 12.65 4.00899 12.65 3.65C12.65 3.29101 12.941 3 13.3 3L13.7574 3C14.553 3 15.3161 3.31607 15.8787 3.87868L19.1213 7.12132C19.6839 7.68393 20 8.44699 20 9.24264L20 10.7ZM4 6C4 4.70331 4.82267 3.59877 5.97454 3.17983C6.34989 3.04332 6.7 3.36121 6.7 3.76061C6.7 4.08796 6.45526 4.35608 6.16974 4.51619C5.65074 4.80721 5.3 5.36265 5.3 6L5.3 6.05C5.3 6.40898 5.00899 6.7 4.65 6.7C4.29102 6.7 4 6.40898 4 6.05L4 6ZM17.8602 7.69863L15.3014 5.13984L15.3014 6.64863C15.3014 7.22853 15.7715 7.69863 16.3514 7.69863L17.8602 7.69863ZM7.96523 8.34863C7.96523 7.98965 8.25625 7.69863 8.61523 7.69863L11.3551 7.69863C11.7141 7.69863 12.0051 7.98965 12.0051 8.34863C12.0051 8.70762 11.7141 8.99863 11.3551 8.99863L8.61523 8.99863C8.25625 8.99863 7.96523 8.70762 7.96523 8.34863ZM4.65 11.35C4.29102 11.35 4 11.059 4 10.7L4 8.65C4 8.29102 4.29102 8 4.65 8C5.00899 8 5.3 8.29101 5.3 8.65L5.3 10.7C5.3 11.059 5.00899 11.35 4.65 11.35ZM8.61523 11.1981L15.3455 11.1981C15.7044 11.1981 15.9955 11.4891 15.9955 11.8481C15.9955 12.2071 15.7044 12.4981 15.3455 12.4981L8.61523 12.4981C8.25625 12.4981 7.96523 12.2071 7.96523 11.8481C7.96523 11.4891 8.25625 11.1981 8.61523 11.1981ZM4.65 12.65C5.00899 12.65 5.3 12.941 5.3 13.3L5.3 15.35C5.3 15.709 5.00899 16 4.65 16C4.29102 16 4 15.709 4 15.35L4 13.3C4 12.941 4.29102 12.65 4.65 12.65ZM19.35 16C18.991 16 18.7 15.709 18.7 15.35L18.7 13.3C18.7 12.941 18.991 12.65 19.35 12.65C19.709 12.65 20 12.941 20 13.3L20 15.35C20 15.709 19.709 16 19.35 16ZM7.96523 15.3623C7.96523 15.0033 8.25625 14.7123 8.61523 14.7123L15.3455 14.7123C15.7044 14.7123 15.9955 15.0033 15.9955 15.3623C15.9955 15.7213 15.7044 16.0123 15.3455 16.0123L8.61523 16.0123C8.25625 16.0123 7.96523 15.7213 7.96523 15.3623ZM6.7 20.2394C6.7 20.6388 6.34989 20.9567 5.97454 20.8202C4.82267 20.4012 4 19.2967 4 18L4 17.95C4 17.591 4.29102 17.3 4.65 17.3C5.00899 17.3 5.3 17.591 5.3 17.95L5.3 18C5.3 18.6374 5.65074 19.1928 6.16974 19.4838C6.45527 19.6439 6.7 19.912 6.7 20.2394ZM19.35 17.3C19.709 17.3 20 17.591 20 17.95L20 18C20 19.2967 19.1773 20.4012 18.0255 20.8202C17.6501 20.9567 17.3 20.6388 17.3 20.2394C17.3 19.912 17.5447 19.6439 17.8303 19.4838C18.3493 19.1928 18.7 18.6374 18.7 18L18.7 17.95C18.7 17.591 18.991 17.3 19.35 17.3ZM10.7 21L8.65 21C8.29102 21 8 20.709 8 20.35C8 19.991 8.29101 19.7 8.65 19.7L10.7 19.7C11.059 19.7 11.35 19.991 11.35 20.35C11.35 20.709 11.059 21 10.7 21ZM16 20.35C16 20.709 15.709 21 15.35 21L13.3 21C12.941 21 12.65 20.709 12.65 20.35C12.65 19.991 12.941 19.7 13.3 19.7L15.35 19.7C15.709 19.7 16 19.991 16 20.35Z"/></svg>

<svg xmlns="http://www.w3.org/2000/svg" fill="none" viewBox="0 0 24 24" focusable="false"><path fill="none" d="M0 0h24v24H0z"/><path fill="#74767B" fill-rule="evenodd" d="M10.7 3c.35 0 .65.29.65.65 0 .35-.3.64-.65.64H8.64a.644.644 0 0 1 0-1.29zm9.3 7.7c0 .35-.3.65-.65.65-.36 0-.65-.3-.65-.65V9.24c0-.08-.01-.17-.02-.25h-2.33c-1.3 0-2.35-1.05-2.35-2.35V4.31c-.08-.01-.17-.02-.25-.02h-.45c-.36 0-.66-.29-.66-.64 0-.36.3-.65.66-.65h.45c.8 0 1.56.31 2.12.87l3.25 3.25c.56.56.88 1.32.88 2.12zM4 6c0-1.3.82-2.41 1.97-2.83.37-.13.72.19.72.59 0 .32-.24.59-.53.75-.51.29-.86.85-.86 1.49v.04c0 .36-.3.66-.66.66-.35 0-.64-.3-.64-.66zm13.86 1.69L15.3 5.13v1.51c0 .58.47 1.05 1.05 1.05zm-9.9.65c0-.36.29-.65.65-.65h2.74c.36 0 .65.29.65.65s-.29.65-.65.65H8.61c-.36 0-.65-.29-.65-.65m-3.32 3.01c-.35 0-.64-.3-.64-.65V8.65c0-.36.29-.65.64-.65.36 0 .66.29.66.65v2.05c0 .35-.3.65-.66.65m3.97-.16h6.73c.36 0 .65.29.65.65s-.29.65-.65.65H8.61c-.36 0-.65-.29-.65-.65s.29-.65.65-.65m-3.97 1.46c.36 0 .66.29.66.65v2.05c0 .35-.3.65-.66.65-.35 0-.64-.3-.64-.65V13.3c0-.36.29-.65.64-.65M19.35 16c-.36 0-.65-.3-.65-.65V13.3c0-.36.29-.65.65-.65.35 0 .65.29.65.65v2.05c0 .35-.3.65-.65.65m-11.39-.64c0-.36.29-.65.65-.65h6.73c.36 0 .65.29.65.65s-.29.65-.65.65H8.61c-.36 0-.65-.29-.65-.65m-1.27 4.87c0 .4-.35.72-.72.59A3.01 3.01 0 0 1 4 18v-.05c0-.36.29-.66.64-.66.36 0 .66.3.66.66V18c0 .63.35 1.19.86 1.48.29.16.53.43.53.75m12.66-2.94c.35 0 .65.3.65.66V18c0 1.29-.83 2.4-1.98 2.82-.37.13-.73-.19-.73-.59 0-.32.25-.59.54-.75.51-.29.87-.85.87-1.48v-.05c0-.36.29-.66.65-.66M10.7 21H8.64c-.35 0-.64-.3-.64-.65 0-.36.29-.65.64-.65h2.06c.35 0 .65.29.65.65 0 .35-.3.65-.65.65m5.3-.65c0 .35-.3.65-.65.65H13.3c-.36 0-.66-.3-.66-.65 0-.36.3-.65.66-.65h2.05c.35 0 .65.29.65.65"/></svg>
